ix/forward-item_outline.svg

<svg viewBox="0 0 24 24" fill="none" xmlns="http://www.w3.org/2000/svg" height="1em" width="1em">
  <path d="M13.6211 18.1299H10.3911C7.26109 18.1299 5.87109 16.7399 5.87109 13.6099V10.3799C5.87109 7.24988 7.26109 5.85986 10.3911 5.85986H13.6211C16.7511 5.85986 18.1411 7.24988 18.1411 10.3799V13.6099C18.1311 16.7399 16.7411 18.1299 13.6211 18.1299ZM10.3811 7.36987C8.0911 7.36987 7.3611 8.09989 7.3611 10.3899V13.6199C7.3611 15.9099 8.0911 16.6399 10.3811 16.6399H13.6111C15.9011 16.6399 16.6311 15.9099 16.6311 13.6199V10.3899C16.6311 8.09989 15.9011 7.36987 13.6111 7.36987H10.3811Z" fill="#292D32"/>
  <path d="M18.2305 13.52H17.3805C16.9705 13.52 16.6305 13.18 16.6305 12.77V10.39C16.6305 8.10001 15.9005 7.37 13.6105 7.37H11.2305C10.8205 7.37 10.4805 7.02999 10.4805 6.62V5.76999C10.4805 2.63999 11.8705 1.25 15.0005 1.25H18.2305C21.3605 1.25 22.7505 2.63999 22.7505 5.76999V9C22.7505 12.13 21.3605 13.52 18.2305 13.52ZM18.1305 12.02H18.2305C20.5205 12.02 21.2505 11.29 21.2505 9V5.76999C21.2505 3.47999 20.5205 2.75 18.2305 2.75H15.0005C12.7105 2.75 11.9805 3.47999 11.9805 5.76999V5.87H13.6105C16.7405 5.87 18.1305 7.26001 18.1305 10.39V12.02Z" fill="#292D32"/>
  <path d="M9 22.75H5.77C2.64 22.75 1.25 21.36 1.25 18.23V15C1.25 11.87 2.64 10.48 5.77 10.48H6.62C7.03 10.48 7.37 10.82 7.37 11.23V13.61C7.37 15.9 8.1 16.63 10.39 16.63H12.77C13.18 16.63 13.52 16.97 13.52 17.38V18.23C13.52 21.36 12.13 22.75 9 22.75ZM5.77 11.98C3.48 11.98 2.75 12.71 2.75 15V18.23C2.75 20.52 3.48 21.25 5.77 21.25H9C11.29 21.25 12.02 20.52 12.02 18.23V18.13H10.39C7.26 18.13 5.87 16.74 5.87 13.61V11.98H5.77Z" fill="#292D32"/>
</svg>

<svg viewBox="0 0 24 24" fill="none" xmlns="http://www.w3.org/2000/svg" height="1em" width="1em">
  <path d="M13.621 18.13h-3.23c-3.13 0-4.52-1.39-4.52-4.52v-3.23c0-3.13 1.39-4.52 4.52-4.52h3.23c3.13 0 4.52 1.39 4.52 4.52v3.23c-.01 3.13-1.4 4.52-4.52 4.52Zm-3.24-10.76c-2.29 0-3.02.73-3.02 3.02v3.23c0 2.29.73 3.02 3.02 3.02h3.23c2.29 0 3.02-.73 3.02-3.02v-3.23c0-2.29-.73-3.02-3.02-3.02h-3.23Z" fill="#292D32"/>
  <path d="M18.23 13.52h-.85c-.41 0-.75-.34-.75-.75v-2.38c0-2.29-.73-3.02-3.02-3.02h-2.38c-.41 0-.75-.34-.75-.75v-.85c0-3.13 1.39-4.52 4.52-4.52h3.23c3.13 0 4.52 1.39 4.52 4.52V9c0 3.13-1.39 4.52-4.52 4.52Zm-.1-1.5h.1c2.29 0 3.02-.73 3.02-3.02V5.77c0-2.29-.73-3.02-3.02-3.02H15c-2.29 0-3.02.73-3.02 3.02v.1h1.63c3.13 0 4.52 1.39 4.52 4.52v1.63ZM9 22.75H5.77c-3.13 0-4.52-1.39-4.52-4.52V15c0-3.13 1.39-4.52 4.52-4.52h.85c.41 0 .75.34.75.75v2.38c0 2.29.73 3.02 3.02 3.02h2.38c.41 0 .75.34.75.75v.85c0 3.13-1.39 4.52-4.52 4.52ZM5.77 11.98c-2.29 0-3.02.73-3.02 3.02v3.23c0 2.29.73 3.02 3.02 3.02H9c2.29 0 3.02-.73 3.02-3.02v-.1h-1.63c-3.13 0-4.52-1.39-4.52-4.52v-1.63h-.1Z" fill="#292D32"/>
</svg>
